X: 33517
T: Raindrops
R: reel
M: 4/4
K: Gmajor
|:DGB2GBdG|B2GA B/^c/d AG|FADA AGFD|EDAD ~E2DB|DGB2 GBdG|
[1 B2GB dgfg|eGce ed B/^c/d|eAAF ~G3E:|2 ABGA Bgfg|eGce ed B/^c/d|eaaf g4||
~g3B Bcec|edAG ~A3G|F2AF GFDE|F/E/D F/E/D c~e3|
d2gd Bccd|edAG Agfg|eGce ed B/^c/d|eaaf g4|
dega- ageg|edAG ~A3G|F~A3 GFDE|F/E/D F/E/D c~e3|
d~g3 Bcec|ed B/A/G Agfg|eGce ed B/^c/d|eAAF ~G3z||

